bernoullicharts/1_3_x_1_1_3_x__mean.svg

<?xml version="1.0" encoding="utf-8" standalone="no"?>
<!DOCTYPE svg PUBLIC "-//W3C//DTD SVG 1.1//EN"
  "http://www.w3.org/Graphics/SVG/1.1/DTD/svg11.dtd">
<!-- Created with matplotlib (https://matplotlib.org/) -->
<svg height="345.6pt" version="1.1" viewBox="0 0 460.8 345.6" width="460.8pt" xmlns="http://www.w3.org/2000/svg" xmlns:xlink="http://www.w3.org/1999/xlink">
 <defs>
  <style type="text/css">
*{stroke-linecap:butt;stroke-linejoin:round;}
  </style>
 </defs>
 <g id="figure_1">
  <g id="patch_1">
   <path d="M 0 345.6 
L 460.8 345.6 
L 460.8 0 
L 0 0 
z
" style="fill:#ffffff;"/>
  </g>
  <g id="axes_1">
   <g id="patch_2">
    <path d="M 57.6 307.584 
L 414.72 307.584 
L 414.72 41.472 
L 57.6 41.472 
z
" style="fill:#ffffff;"/>
   </g>
   <g id="matplotlib.axis_1">
    <g id="xtick_1">
     <g id="line2d_1">
      <defs>
       <path d="M 0 0 
L 0 3.5 
" id="ma28eb6fbee" style="stroke:#000000;stroke-width:0.8;"/>
      </defs>
      <g>
       <use style="stroke:#000000;stroke-width:0.8;" x="73.800255" xlink:href="#ma28eb6fbee" y="307.584"/>
      </g>
     </g>
     <g id="text_1">
      <text style="font-family:DejaVu Sans;font-size:10px;font-style:normal;font-weight:normal;text-anchor:middle;" transform="rotate(-0, 73.800255, 322.182437)" x="73.800255" y="322.182437">0.0</text>
     </g>
    </g>
    <g id="xtick_2">
     <g id="line2d_2">
      <g>
       <use style="stroke:#000000;stroke-width:0.8;" x="138.744153" xlink:href="#ma28eb6fbee" y="307.584"/>
      </g>
     </g>
     <g id="text_2">
      <text style="font-family:DejaVu Sans;font-size:10px;font-style:normal;font-weight:normal;text-anchor:middle;" transform="rotate(-0, 138.744153, 322.182437)" x="138.744153" y="322.182437">0.2</text>
     </g>
    </g>
    <g id="xtick_3">
     <g id="line2d_3">
      <g>
       <use style="stroke:#000000;stroke-width:0.8;" x="203.688051" xlink:href="#ma28eb6fbee" y="307.584"/>
      </g>
     </g>
     <g id="text_3">
      <text style="font-family:DejaVu Sans;font-size:10px;font-style:normal;font-weight:normal;text-anchor:middle;" transform="rotate(-0, 203.688051, 322.182437)" x="203.688051" y="322.182437">0.4</text>
     </g>
    </g>
    <g id="xtick_4">
     <g id="line2d_4">
      <g>
       <use style="stroke:#000000;stroke-width:0.8;" x="268.631949" xlink:href="#ma28eb6fbee" y="307.584"/>
      </g>
     </g>
     <g id="text_4">
      <text style="font-family:DejaVu Sans;font-size:10px;font-style:normal;font-weight:normal;text-anchor:middle;" transform="rotate(-0, 268.631949, 322.182437)" x="268.631949" y="322.182437">0.6</text>
     </g>
    </g>
    <g id="xtick_5">
     <g id="line2d_5">
      <g>
       <use style="stroke:#000000;stroke-width:0.8;" x="333.575847" xlink:href="#ma28eb6fbee" y="307.584"/>
      </g>
     </g>
     <g id="text_5">
      <text style="font-family:DejaVu Sans;font-size:10px;font-style:normal;font-weight:normal;text-anchor:middle;" transform="rotate(-0, 333.575847, 322.182437)" x="333.575847" y="322.182437">0.8</text>
     </g>
    </g>
    <g id="xtick_6">
     <g id="line2d_6">
      <g>
       <use style="stroke:#000000;stroke-width:0.8;" x="398.519745" xlink:href="#ma28eb6fbee" y="307.584"/>
      </g>
     </g>
     <g id="text_6">
      <text style="font-family:DejaVu Sans;font-size:10px;font-style:normal;font-weight:normal;text-anchor:middle;" transform="rotate(-0, 398.519745, 322.182437)" x="398.519745" y="322.182437">1.0</text>
     </g>
    </g>
    <g id="text_7">
     <text style="font-family:DejaVu Sans;font-size:10px;font-style:normal;font-weight:normal;text-anchor:middle;" transform="rotate(-0, 236.16, 335.860562)" x="236.16" y="335.860562">Input Coin's Heads Probability (λ)</text>
    </g>
   </g>
   <g id="matplotlib.axis_2">
    <g id="ytick_1">
     <g id="line2d_7">
      <defs>
       <path d="M 0 0 
L -3.5 0 
" id="m34da65854e" style="stroke:#000000;stroke-width:0.8;"/>
      </defs>
      <g>
       <use style="stroke:#000000;stroke-width:0.8;" x="57.6" xlink:href="#m34da65854e" y="295.488"/>
      </g>
     </g>
     <g id="text_8">
      <text style="font-family:DejaVu Sans;font-size:10px;font-style:normal;font-weight:normal;text-anchor:end;" transform="rotate(-0, 50.6, 299.287219)" x="50.6" y="299.287219">0.00</text>
     </g>
    </g>
    <g id="ytick_2">
     <g id="line2d_8">
      <g>
       <use style="stroke:#000000;stroke-width:0.8;" x="57.6" xlink:href="#m34da65854e" y="253.488"/>
      </g>
     </g>
     <g id="text_9">
      <text style="font-family:DejaVu Sans;font-size:10px;font-style:normal;font-weight:normal;text-anchor:end;" transform="rotate(-0, 50.6, 257.287219)" x="50.6" y="257.287219">0.05</text>
     </g>
    </g>
    <g id="ytick_3">
     <g id="line2d_9">
      <g>
       <use style="stroke:#000000;stroke-width:0.8;" x="57.6" xlink:href="#m34da65854e" y="211.488"/>
      </g>
     </g>
     <g id="text_10">
      <text style="font-family:DejaVu Sans;font-size:10px;font-style:normal;font-weight:normal;text-anchor:end;" transform="rotate(-0, 50.6, 215.287219)" x="50.6" y="215.287219">0.10</text>
     </g>
    </g>
    <g id="ytick_4">
     <g id="line2d_10">
      <g>
       <use style="stroke:#000000;stroke-width:0.8;" x="57.6" xlink:href="#m34da65854e" y="169.488"/>
      </g>
     </g>
     <g id="text_11">
      <text style="font-family:DejaVu Sans;font-size:10px;font-style:normal;font-weight:normal;text-anchor:end;" transform="rotate(-0, 50.6, 173.287219)" x="50.6" y="173.287219">0.15</text>
     </g>
    </g>
    <g id="ytick_5">
     <g id="line2d_11">
      <g>
       <use style="stroke:#000000;stroke-width:0.8;" x="57.6" xlink:href="#m34da65854e" y="127.488"/>
      </g>
     </g>
     <g id="text_12">
      <text style="font-family:DejaVu Sans;font-size:10px;font-style:normal;font-weight:normal;text-anchor:end;" transform="rotate(-0, 50.6, 131.287219)" x="50.6" y="131.287219">0.20</text>
     </g>
    </g>
    <g id="ytick_6">
     <g id="line2d_12">
      <g>
       <use style="stroke:#000000;stroke-width:0.8;" x="57.6" xlink:href="#m34da65854e" y="85.488"/>
      </g>
     </g>
     <g id="text_13">
      <text style="font-family:DejaVu Sans;font-size:10px;font-style:normal;font-weight:normal;text-anchor:end;" transform="rotate(-0, 50.6, 89.287219)" x="50.6" y="89.287219">0.25</text>
     </g>
    </g>
    <g id="ytick_7">
     <g id="line2d_13">
      <g>
       <use style="stroke:#000000;stroke-width:0.8;" x="57.6" xlink:href="#m34da65854e" y="43.488"/>
      </g>
     </g>
     <g id="text_14">
      <text style="font-family:DejaVu Sans;font-size:10px;font-style:normal;font-weight:normal;text-anchor:end;" transform="rotate(-0, 50.6, 47.287219)" x="50.6" y="47.287219">0.30</text>
     </g>
    </g>
    <g id="text_15">
     <text style="font-family:DejaVu Sans;font-size:10px;font-style:normal;font-weight:normal;text-anchor:middle;" transform="rotate(-90, 22.254687, 174.528)" x="22.254687" y="174.528">Simulated Mean / Function Value</text>
    </g>
   </g>
   <g id="line2d_14">
    <path clip-path="url(#p4efb3fef11)" d="M 73.832727 295.460001 
L 77.112066 292.641958 
L 80.391405 289.842761 
L 83.670744 287.062221 
L 86.950083 284.300152 
L 90.229421 281.556371 
L 93.50876 278.830696 
L 96.788099 276.122949 
L 100.067438 273.432954 
L 103.346777 270.760537 
L 106.626116 268.105525 
L 109.905455 265.467751 
L 113.184793 262.847045 
L 116.464132 260.243243 
L 119.743471 257.656182 
L 123.02281 255.085701 
L 126.302149 252.531642 
L 129.581488 249.993846 
L 132.860826 247.47216 
L 136.140165 244.966431 
L 139.419504 242.476507 
L 142.698843 240.00224 
L 145.978182 237.543482 
L 149.257521 235.100088 
L 152.53686 232.671914 
L 155.816198 230.258819 
L 159.095537 227.860662 
L 162.374876 225.477306 
L 165.654215 223.108613 
L 168.933554 220.754449 
L 172.212893 218.414681 
L 175.492231 216.089176 
L 178.77157 213.777805 
L 182.050909 211.48044 
L 185.330248 209.196953 
L 188.609587 206.927219 
L 191.888926 204.671115 
L 195.168264 202.428517 
L 198.447603 200.199305 
L 201.726942 197.983359 
L 205.006281 195.780562 
L 208.28562 193.590797 
L 211.564959 191.413947 
L 214.844298 189.2499 
L 218.123636 187.098543 
L 221.402975 184.959765 
L 224.682314 182.833454 
L 227.961653 180.719504 
L 231.240992 178.617806 
L 234.520331 176.528254 
L 237.799669 174.450743 
L 241.079008 172.38517 
L 244.358347 170.331431 
L 247.637686 168.289426 
L 250.917025 166.259053 
L 254.196364 164.240215 
L 257.475702 162.232812 
L 260.755041 160.236749 
L 264.03438 158.251929 
L 267.313719 156.278257 
L 270.593058 154.31564 
L 273.872397 152.363986 
L 277.151736 150.423201 
L 280.431074 148.493198 
L 283.710413 146.573884 
L 286.989752 144.665173 
L 290.269091 142.766975 
L 293.54843 140.879206 
L 296.827769 139.001778 
L 300.107107 137.134608 
L 303.386446 135.277611 
L 306.665785 133.430704 
L 309.945124 131.593806 
L 313.224463 129.766835 
L 316.503802 127.949712 
L 319.78314 126.142356 
L 323.062479 124.344689 
L 326.341818 122.556633 
L 329.621157 120.778112 
L 332.900496 119.00905 
L 336.179835 117.249371 
L 339.459174 115.499 
L 342.738512 113.757865 
L 346.017851 112.025892 
L 349.29719 110.303008 
L 352.576529 108.589144 
L 355.855868 106.884228 
L 359.135207 105.188189 
L 362.414545 103.50096 
L 365.693884 101.822472 
L 368.973223 100.152656 
L 372.252562 98.491446 
L 375.531901 96.838775 
L 378.81124 95.194578 
L 382.090579 93.55879 
L 385.369917 91.931346 
L 388.649256 90.312183 
L 391.928595 88.701237 
L 395.207934 87.098447 
L 398.487273 85.50375 
" style="fill:none;stroke:#1f77b4;stroke-linecap:square;stroke-width:1.5;"/>
   </g>
   <g id="line2d_15">
    <path clip-path="url(#p4efb3fef11)" d="M 73.832727 295.488 
L 77.112066 290.448 
L 80.391405 288.768 
L 83.670744 273.648 
L 86.950083 271.968 
L 90.229421 287.088 
L 93.50876 277.008 
L 96.788099 270.288 
L 100.067438 268.608 
L 103.346777 265.248 
L 106.626116 270.288 
L 109.905455 277.008 
L 113.184793 261.888 
L 116.464132 250.128 
L 119.743471 255.168 
L 123.02281 248.448 
L 126.302149 258.528 
L 129.581488 256.848 
L 132.860826 246.768 
L 136.140165 251.808 
L 139.419504 233.328 
L 142.698843 250.128 
L 145.978182 238.368 
L 149.257521 221.568 
L 152.53686 226.608 
L 155.816198 226.608 
L 159.095537 198.048 
L 162.374876 209.808 
L 165.654215 226.608 
L 168.933554 236.688 
L 172.212893 228.288 
L 175.492231 224.928 
L 178.77157 241.728 
L 182.050909 216.528 
L 185.330248 204.768 
L 188.609587 223.248 
L 191.888926 204.768 
L 195.168264 199.728 
L 198.447603 206.448 
L 201.726942 199.728 
L 205.006281 201.408 
L 208.28562 211.488 
L 211.564959 199.728 
L 214.844298 196.368 
L 218.123636 191.328 
L 221.402975 172.848 
L 224.682314 172.848 
L 227.961653 179.568 
L 231.240992 164.448 
L 234.520331 169.488 
L 237.799669 179.568 
L 241.079008 176.208 
L 244.358347 172.848 
L 247.637686 144.288 
L 250.917025 191.328 
L 254.196364 177.888 
L 257.475702 164.448 
L 260.755041 161.088 
L 264.03438 174.528 
L 267.313719 181.248 
L 270.593058 127.488 
L 273.872397 132.528 
L 277.151736 142.608 
L 280.431074 154.368 
L 283.710413 140.928 
L 286.989752 135.888 
L 290.269091 129.168 
L 293.54843 120.768 
L 296.827769 135.888 
L 300.107107 139.248 
L 303.386446 119.088 
L 306.665785 147.648 
L 309.945124 115.728 
L 313.224463 103.968 
L 316.503802 151.008 
L 319.78314 127.488 
L 323.062479 114.048 
L 326.341818 145.968 
L 329.621157 129.168 
L 332.900496 90.528 
L 336.179835 93.888 
L 339.459174 103.968 
L 342.738512 103.968 
L 346.017851 115.728 
L 349.29719 105.648 
L 352.576529 114.048 
L 355.855868 97.248 
L 359.135207 93.888 
L 362.414545 95.568 
L 365.693884 93.888 
L 368.973223 93.888 
L 372.252562 115.728 
L 375.531901 115.728 
L 378.81124 107.328 
L 382.090579 107.328 
L 385.369917 87.168 
L 388.649256 72.048 
L 391.928595 53.568 
L 395.207934 103.968 
L 398.487273 109.008 
" style="fill:none;stroke:#ff7f0e;stroke-linecap:square;stroke-width:1.5;"/>
   </g>
   <g id="patch_3">
    <path d="M 57.6 307.584 
L 57.6 41.472 
" style="fill:none;stroke:#000000;stroke-linecap:square;stroke-linejoin:miter;stroke-width:0.8;"/>
   </g>
   <g id="patch_4">
    <path d="M 414.72 307.584 
L 414.72 41.472 
" style="fill:none;stroke:#000000;stroke-linecap:square;stroke-linejoin:miter;stroke-width:0.8;"/>
   </g>
   <g id="patch_5">
    <path d="M 57.6 307.584 
L 414.72 307.584 
" style="fill:none;stroke:#000000;stroke-linecap:square;stroke-linejoin:miter;stroke-width:0.8;"/>
   </g>
   <g id="patch_6">
    <path d="M 57.6 41.472 
L 414.72 41.472 
" style="fill:none;stroke:#000000;stroke-linecap:square;stroke-linejoin:miter;stroke-width:0.8;"/>
   </g>
   <g id="text_16">
    <text style="font-family:DejaVu Sans;font-size:12px;font-style:normal;font-weight:normal;text-anchor:middle;" transform="rotate(-0, 236.16, 35.472)" x="236.16" y="35.472">Expected Value in (1/3)*x/(1+(1/3)*x) Algorithm</text>
   </g>
   <g id="legend_1">
    <g id="patch_7">
     <path d="M 64.6 78.82825 
L 289.098438 78.82825 
Q 291.098438 78.82825 291.098438 76.82825 
L 291.098438 48.472 
Q 291.098438 46.472 289.098438 46.472 
L 64.6 46.472 
Q 62.6 46.472 62.6 48.472 
L 62.6 76.82825 
Q 62.6 78.82825 64.6 78.82825 
z
" style="fill:#ffffff;opacity:0.8;stroke:#cccccc;stroke-linejoin:miter;"/>
    </g>
    <g id="line2d_16">
     <path d="M 66.6 54.570437 
L 86.6 54.570437 
" style="fill:none;stroke:#1f77b4;stroke-linecap:square;stroke-width:1.5;"/>
    </g>
    <g id="line2d_17"/>
    <g id="text_17">
     <text style="font-family:DejaVu Sans;font-size:10px;font-style:normal;font-weight:normal;text-anchor:start;" transform="rotate(-0, 94.6, 58.070437)" x="94.6" y="58.070437">(1/3)*x/(1+(1/3)*x)</text>
    </g>
    <g id="line2d_18">
     <path d="M 66.6 69.248562 
L 86.6 69.248562 
" style="fill:none;stroke:#ff7f0e;stroke-linecap:square;stroke-width:1.5;"/>
    </g>
    <g id="line2d_19"/>
    <g id="text_18">
     <text style="font-family:DejaVu Sans;font-size:10px;font-style:normal;font-weight:normal;text-anchor:start;" transform="rotate(-0, 94.6, 72.748562)" x="94.6" y="72.748562">Simulated Mean of (1/3)*x/(1+(1/3)*x)</text>
    </g>
   </g>
  </g>
 </g>
 <defs>
  <clipPath id="p4efb3fef11">
   <rect height="266.112" width="357.12" x="57.6" y="41.472"/>
  </clipPath>
 </defs>
</svg>

<svg height="460.8" viewBox="0 0 460.8 345.6" width="614.4" xmlns="http://www.w3.org/2000/svg" xmlns:xlink="http://www.w3.org/1999/xlink"><defs><style>*{stroke-linecap:butt;stroke-linejoin:round}</style></defs><g id="figure_1"><path d="M0 345.6h460.8V0H0z" fill="#fff" id="patch_1"/><g id="axes_1"><path d="M57.6 307.584h357.12V41.472H57.6z" fill="#fff" id="patch_2"/><g id="matplotlib.axis_1"><g id="xtick_1"><g id="line2d_1"><defs><path d="M0 0v3.5" id="ma28eb6fbee" stroke="#000" stroke-width=".8"/></defs><use x="73.8" xlink:href="#ma28eb6fbee" y="307.584" stroke="#000" stroke-width=".8"/></g><text x="73.8" y="322.182" font-family="DejaVu Sans" font-size="10" font-weight="400" text-anchor="middle" id="text_1">0.0</text></g><g id="xtick_2"><use x="138.744" xlink:href="#ma28eb6fbee" y="307.584" stroke="#000" stroke-width=".8" id="line2d_2"/><text x="138.744" y="322.182" font-family="DejaVu Sans" font-size="10" font-weight="400" text-anchor="middle" id="text_2">0.2</text></g><g id="xtick_3"><use x="203.688" xlink:href="#ma28eb6fbee" y="307.584" stroke="#000" stroke-width=".8" id="line2d_3"/><text x="203.688" y="322.182" font-family="DejaVu Sans" font-size="10" font-weight="400" text-anchor="middle" id="text_3">0.4</text></g><g id="xtick_4"><use x="268.632" xlink:href="#ma28eb6fbee" y="307.584" stroke="#000" stroke-width=".8" id="line2d_4"/><text x="268.632" y="322.182" font-family="DejaVu Sans" font-size="10" font-weight="400" text-anchor="middle" id="text_4">0.6</text></g><g id="xtick_5"><use x="333.576" xlink:href="#ma28eb6fbee" y="307.584" stroke="#000" stroke-width=".8" id="line2d_5"/><text x="333.576" y="322.182" font-family="DejaVu Sans" font-size="10" font-weight="400" text-anchor="middle" id="text_5">0.8</text></g><g id="xtick_6"><use x="398.52" xlink:href="#ma28eb6fbee" y="307.584" stroke="#000" stroke-width=".8" id="line2d_6"/><text x="398.52" y="322.182" font-family="DejaVu Sans" font-size="10" font-weight="400" text-anchor="middle" id="text_6">1.0</text></g><text x="236.16" y="335.861" font-family="DejaVu Sans" font-size="10" font-weight="400" text-anchor="middle" id="text_7">Input Coin&apos;s Heads Probability (λ)</text></g><g id="matplotlib.axis_2"><g id="ytick_1"><g id="line2d_7"><defs><path d="M0 0h-3.5" id="m34da65854e" stroke="#000" stroke-width=".8"/></defs><use x="57.6" xlink:href="#m34da65854e" y="295.488" stroke="#000" stroke-width=".8"/></g><text x="50.6" y="299.287" font-family="DejaVu Sans" font-size="10" font-weight="400" text-anchor="end" id="text_8">0.00</text></g><g id="ytick_2"><use x="57.6" xlink:href="#m34da65854e" y="253.488" stroke="#000" stroke-width=".8" id="line2d_8"/><text x="50.6" y="257.287" font-family="DejaVu Sans" font-size="10" font-weight="400" text-anchor="end" id="text_9">0.05</text></g><g id="ytick_3"><use x="57.6" xlink:href="#m34da65854e" y="211.488" stroke="#000" stroke-width=".8" id="line2d_9"/><text x="50.6" y="215.287" font-family="DejaVu Sans" font-size="10" font-weight="400" text-anchor="end" id="text_10">0.10</text></g><g id="ytick_4"><use x="57.6" xlink:href="#m34da65854e" y="169.488" stroke="#000" stroke-width=".8" id="line2d_10"/><text x="50.6" y="173.287" font-family="DejaVu Sans" font-size="10" font-weight="400" text-anchor="end" id="text_11">0.15</text></g><g id="ytick_5"><use x="57.6" xlink:href="#m34da65854e" y="127.488" stroke="#000" stroke-width=".8" id="line2d_11"/><text x="50.6" y="131.287" font-family="DejaVu Sans" font-size="10" font-weight="400" text-anchor="end" id="text_12">0.20</text></g><g id="ytick_6"><use x="57.6" xlink:href="#m34da65854e" y="85.488" stroke="#000" stroke-width=".8" id="line2d_12"/><text x="50.6" y="89.287" font-family="DejaVu Sans" font-size="10" font-weight="400" text-anchor="end" id="text_13">0.25</text></g><g id="ytick_7"><use x="57.6" xlink:href="#m34da65854e" y="43.488" stroke="#000" stroke-width=".8" id="line2d_13"/><text x="50.6" y="47.287" font-family="DejaVu Sans" font-size="10" font-weight="400" text-anchor="end" id="text_14">0.30</text></g><text transform="rotate(-90 22.255 174.528)" x="22.255" y="174.528" font-family="DejaVu Sans" font-size="10" font-weight="400" text-anchor="middle" id="text_15">Simulated Mean / Function Value</text></g><path clip-path="url(#p4efb3fef11)" d="M73.833 295.46l3.28-2.818 3.278-2.8 3.28-2.78 3.28-2.762 3.278-2.744 3.28-2.725 3.28-2.708 3.278-2.69 3.28-2.672 3.28-2.655 3.278-2.638 3.28-2.621 3.28-2.604 3.278-2.587 3.28-2.57 3.28-2.554 3.278-2.538 3.28-2.522 3.28-2.506 3.279-2.49 3.279-2.474 3.28-2.459 3.279-2.443 3.279-2.428 3.28-2.413 3.279-2.398 3.279-2.384 3.28-2.368 3.279-2.355 3.279-2.34 3.28-2.325 3.279-2.311 3.279-2.298 3.28-2.283 3.279-2.27 3.279-2.256 3.28-2.242 3.279-2.23 3.279-2.216 3.28-2.202 3.279-2.19 3.279-2.177 3.28-2.164 3.279-2.151 3.279-2.14 3.28-2.126 3.279-2.113 3.279-2.102 3.28-2.09 3.279-2.077 3.279-2.066 3.28-2.054 3.279-2.042 3.279-2.03 3.28-2.019 3.279-2.007 3.279-1.996 3.28-1.985 3.279-1.974 3.28-1.962 3.278-1.952 3.28-1.94 3.28-1.93 3.278-1.92 3.28-1.909 3.28-1.898 3.278-1.888 3.28-1.877 3.28-1.867 3.278-1.857 3.28-1.847 3.28-1.837 3.278-1.827 3.28-1.817 3.28-1.808 3.278-1.797 3.28-1.788 3.28-1.779 3.278-1.769 3.28-1.76 3.28-1.75 3.279-1.741 3.279-1.732 3.28-1.723 3.279-1.714 3.279-1.705 3.28-1.696 3.279-1.687 3.279-1.679 3.28-1.67 3.279-1.66 3.279-1.653 3.28-1.644 3.279-1.636 3.279-1.628 3.28-1.619 3.279-1.61 3.279-1.604 3.28-1.594" fill="none" stroke="#1f77b4" stroke-linecap="square" stroke-width="1.5" id="line2d_14"/><path clip-path="url(#p4efb3fef11)" d="M73.833 295.488l3.28-5.04 3.278-1.68 3.28-15.12 3.28-1.68 3.278 15.12 3.28-10.08 3.28-6.72 3.278-1.68 3.28-3.36 3.28 5.04 3.278 6.72 3.28-15.12 3.28-11.76 3.278 5.04 3.28-6.72 3.28 10.08 3.278-1.68 3.28-10.08 3.28 5.04 3.279-18.48 3.279 16.8 3.28-11.76 3.279-16.8 3.279 5.04h3.28l3.279-28.56 3.279 11.76 3.28 16.8 3.279 10.08 3.279-8.4 3.28-3.36 3.279 16.8 3.279-25.2 3.28-11.76 3.279 18.48 3.279-18.48 3.28-5.04 3.279 6.72 3.279-6.72 3.28 1.68 3.279 10.08 3.279-11.76 3.28-3.36 3.279-5.04 3.279-18.48h3.28l3.279 6.72 3.279-15.12 3.28 5.04 3.279 10.08 3.279-3.36 3.28-3.36 3.279-28.56 3.279 47.04 3.28-13.44 3.279-13.44 3.279-3.36 3.28 13.44 3.279 6.72 3.28-53.76 3.278 5.04 3.28 10.08 3.28 11.76 3.278-13.44 3.28-5.04 3.28-6.72 3.278-8.4 3.28 15.12 3.28 3.36 3.278-20.16 3.28 28.56 3.28-31.92 3.278-11.76 3.28 47.04 3.28-23.52 3.278-13.44 3.28 31.92 3.28-16.8 3.278-38.64 3.28 3.36 3.28 10.08h3.279l3.279 11.76 3.28-10.08 3.279 8.4 3.279-16.8 3.28-3.36 3.279 1.68 3.279-1.68h3.28l3.279 21.84h3.279l3.28-8.4h3.279l3.279-20.16 3.28-15.12 3.279-18.48 3.279 50.4 3.28 5.04" fill="none" stroke="#ff7f0e" stroke-linecap="square" stroke-width="1.5" id="line2d_15"/><path d="M57.6 307.584V41.472" fill="none" stroke="#000" stroke-linecap="square" stroke-width=".8" id="patch_3"/><path d="M414.72 307.584V41.472" fill="none" stroke="#000" stroke-linecap="square" stroke-width=".8" id="patch_4"/><path d="M57.6 307.584h357.12" fill="none" stroke="#000" stroke-linecap="square" stroke-width=".8" id="patch_5"/><path d="M57.6 41.472h357.12" fill="none" stroke="#000" stroke-linecap="square" stroke-width=".8" id="patch_6"/><text x="236.16" y="35.472" font-family="DejaVu Sans" font-size="12" font-weight="400" text-anchor="middle" id="text_16">Expected Value in (1/3)*x/(1+(1/3)*x) Algorithm</text><g id="legend_1"><path d="M64.6 78.828h224.498q2 0 2-2V48.472q0-2-2-2H64.6q-2 0-2 2v28.356q0 2 2 2z" fill="#fff" opacity=".8" stroke="#ccc" id="patch_7"/><path d="M66.6 54.57h20" fill="none" stroke="#1f77b4" stroke-linecap="square" stroke-width="1.5" id="line2d_16"/><text x="94.6" y="58.07" font-family="DejaVu Sans" font-size="10" font-weight="400" id="text_17">(1/3)*x/(1+(1/3)*x)</text><path d="M66.6 69.249h20" fill="none" stroke="#ff7f0e" stroke-linecap="square" stroke-width="1.5" id="line2d_18"/><text x="94.6" y="72.749" font-family="DejaVu Sans" font-size="10" font-weight="400" id="text_18">Simulated Mean of (1/3)*x/(1+(1/3)*x)</text></g></g></g><defs><clipPath id="p4efb3fef11"><path d="M57.6 41.472h357.12v266.112H57.6z"/></clipPath></defs></svg>
